X:579
T:Eagle's Whistle, The
S:Forgotten or lost
Z:Nigel Gatherer
L:1/8
M:3/4
K:G
DGA | B2    dBAG | BA/B/ dBAG    | A2 A>BAG   | A3 
DGA | B2    dBAG | BA/B/ dBAB/A/ | G2 GBAB/A/ | G2 G  :|
ABd | ef/e/ degf | ef/e/ dBAG    | A2 A>BAG   | A3 
ABd | ef/e/ degf | ef/e/ dBAB/A/ | G2 GBAB/A/ | G2 G :|]
